X:1
T:Exeter, 87.87.77.77
T:James Tilleard (1827-1876)
T:Exeter, 87.87.77.77
T:Public Domain
C:James Tilleard (1827-1876)
Z:Public Domain
%%score ( 1 2 ) ( 3 4 )
L:1/8
M:4/4
K:D
V:1 treble 
V:2 treble 
V:3 bass 
V:4 bass 
V:1
 [DF]2 [DF]2 [B,E]3 [B,D] | (CE)(GB) [CB]2 [DA]2 | [FA]2 [Ad]2 [Ac]2 [GB]2 | [FA]2 (ED) [CE]4 | %4
 [DF]2 [=CF]2 [B,E]3 [B,D] | (CE)(GB) [CB]2 [DA]2 | (Ac) z c ([ce]2 [Bd][Ac]) | %7
 [Ac]2 [^GB]2 [EA]4 | [FA]3 [Fd] [Gd]2 [Gc]2 | (f2 e)[Gc] [GA]4 | [Fd]3 [FA] ([FA]2 [EG])[DF] | %11
 [DF]2 [CE]2 [DF]4 | [FA]3 [Fd] [Gd]2 [Gc]2 | (f2 e)[Gc] [GA]4 | [Fd]3 [FA] ([FA]2 [EG])[DF] | %15
 [DF]2 [CE]2 D4 |] %16
V:2
 x8 | A,2 C2 x4 | x8 | x2 B2 x4 | x8 | A,2 C2 x4 | E3 e2 x3 | x8 | x8 | G3 x5 | x8 | x8 | x8 | %13
 G3 x5 | x8 | x4 D4 |] %16
V:3
 [D,A,]2 [D,A,]2 [G,,G,]3 [G,,F,] | [A,,E,]2 [A,,E,]2 [A,,E,]2 [D,F,]2 | A,2 [D,F,]2 (G,A,)(B,C) | %3
 [F,D]2 [G,B,]2 A,4 | [D,A,]2 [D,A,]2 [G,,G,]3 [G,,F,] | [A,,E,]2 [A,,E,]2 [A,,E,]2 [D,F,]2 | %6
 C,2 z E [D,F]3 [D,F] | E,2 z D [A,,C]4 | [D,D]3 [D,A,] [E,A,]2 [E,A,]2 | [A,,C]3 [A,,C] [A,C]4 | %10
 [D,A,]3 [F,A,] [G,B,]3 [G,B,] | A,2 [A,,A,]2 [D,A,]4 | [D,D]3 [D,A,] [E,A,]2 [E,A,]2 | %13
 [A,,C]3 [A,,C] [A,C]4 | [D,=C]3 [F,C] [G,B,]3 [G,B,] | A,2 [A,,G,]2 [D,F,]4 |] %16
V:4
 x8 | x8 | x4 E,2 E,2 | x4 A,4 | x8 | x8 | A,3 C,2 x3 | E3 E,2 x3 | x8 | x8 | x8 | A,2 x6 | x8 | %13
 x8 | x8 | A,2 x6 |] %16

